static/img/menus/ico-faceshot-pause.svg

<svg width="20" height="20" viewBox="0 0 20 20" fill="none" xmlns="http://www.w3.org/2000/svg">
<path d="M7.5 2.5C8.05228 2.5 8.5 2.94772 8.5 3.5V16.5C8.5 17.0523 8.05228 17.5 7.5 17.5H3.5C2.94772 17.5 2.5 17.0523 2.5 16.5V3.5C2.5 2.94771 2.94772 2.5 3.5 2.5H7.5ZM16.5 2.5C17.0523 2.5 17.5 2.94772 17.5 3.5V16.5C17.5 17.0523 17.0523 17.5 16.5 17.5H12.5C11.9477 17.5 11.5 17.0523 11.5 16.5V3.5C11.5 2.94771 11.9477 2.5 12.5 2.5H16.5Z" stroke="#757575"/>
</svg>

<svg xmlns="http://www.w3.org/2000/svg" width="20" height="20" fill="none" viewBox="0 0 20 20"><path stroke="#757575" d="M7.5 2.5a1 1 0 0 1 1 1v13a1 1 0 0 1-1 1h-4a1 1 0 0 1-1-1v-13a1 1 0 0 1 1-1zm9 0a1 1 0 0 1 1 1v13a1 1 0 0 1-1 1h-4a1 1 0 0 1-1-1v-13a1 1 0 0 1 1-1z"/></svg>
